packages/client/assets/misskey.svg

<?xml version="1.0" encoding="UTF-8" standalone="no"?>
<!DOCTYPE svg PUBLIC "-//W3C//DTD SVG 1.1//EN" "http://www.w3.org/Graphics/SVG/1.1/DTD/svg11.dtd">
<svg width="521px" height="136px" version="1.1" xmlns="http://www.w3.org/2000/svg" xmlns:xlink="http://www.w3.org/1999/xlink" xml:space="preserve" xmlns:serif="http://www.serif.com/" style="fill-rule:evenodd;clip-rule:evenodd;stroke-linejoin:round;stroke-miterlimit:2;">
<g
   id="g515"><g
     id="g4"
     transform="matrix(0.26953065,0,0,0.26953065,-55.340601,-52.022919)"
     style="fill:#000000">
        <g
   id="g305"><path
     d="m 1325.7884,196.72315 c -16.13,0 -29.96,5.766 -41.48,17.289 -11.14,11.142 -16.8292,24.77837 -16.72,40.91 L 1269.38,519.72 c 0.1092,16.14063 5.58,29.977 16.72,41.5 11.52,11.142 25.35,16.713 41.48,16.713 16.15,0 29.97,-5.571 41.5,-16.713 11.52,-11.523 17.29,-25.353 17.29,-41.486 0,-11.523 1.53,-17.281 4.59,-17.281 1.55,0 3.09,0.57 4.62,1.713 l 57.62,55.895 c 11.52,11.142 25.16,16.713 40.91,16.713 16.51,0 30.34,-5.765 41.49,-17.288 11.14,-11.914 16.71,-25.55 16.71,-40.911 0,-16.522 -5.95,-30.546 -17.86,-42.069 -26.13,-25.741 -39.76,-38.989 -40.91,-39.751 -5,-5 -4.81,-9.225 0.57,-12.682 l 1.16,-0.576 v -0.568 l 36.3,-23.054 c 17.28,-11.523 25.93,-27.849 25.93,-48.971 0,-11.523 -3.08,-22.282 -9.22,-32.281 -11.52,-17.284 -27.85,-25.932 -48.98,-25.932 -11.52,0 -22.28,3.077 -32.26,9.22 -44.56,29.588 -67.62,44.767 -69.16,45.538 -2.68,1.914 -5.18,2.289 -7.48,1.137 -2.7,-1.152 -3.9702,-3.64783 -4.05,-7.485 l -1.7916,-86.17885 c -0.3353,-16.12851 -5.76,-29.768 -17.28,-40.91 -11.52,-11.523 -25.35,-17.289 -41.49,-17.289 z M 1716.37,291.738 c -39.95,0 -74.13,14.211 -102.56,42.638 -28.05,28.046 -42.07,61.851 -42.07,101.419 0,39.95 14.02,74.137 42.07,102.564 28.43,28.045 62.61,42.069 102.56,42.069 39.57,0 73.57,-14.024 102,-42.069 8.83,-8.838 13.25,-19.586 13.25,-32.252 0,-12.684 -4.42,-23.443 -13.25,-32.28 -8.84,-8.828 -19.6,-13.243 -32.26,-13.243 -12.69,0 -23.45,4.415 -32.28,13.243 -10.37,10.761 -22.86,16.136 -37.46,16.136 -14.97,0 -27.84,-5.183 -38.6,-15.553 -10.38,-10.761 -15.57,-23.635 -15.57,-38.615 0,-14.589 5.39,-27.075 16.15,-37.455 5.38,-5.762 11.91,-9.6 19.58,-11.523 1.94,-0.381 3.47,-0.194 4.62,0.568 0.77,1.162 0.38,2.317 -1.16,3.469 l -11.52,12.099 c -8.84,8.838 -13.26,19.406 -13.26,31.691 0,12.675 3.84,22.853 11.52,30.538 7.68,7.686 18.44,11.523 32.28,11.523 9.6,0 19.2,-4.795 28.8,-14.394 l 66.85,-66.267 c 8.84,-8.847 13.26,-19.608 13.26,-32.274 0,-12.684 -4.42,-23.438 -13.26,-32.266 -26.89,-26.512 -60.12,-39.766 -99.69,-39.766 z m 193.8,4.998 c -16.13,0 -29.96,5.765 -41.48,17.288 -11.14,11.133 -16.71,24.769 -16.71,40.91 v 80.094 c 0,38.797 13.82,72.022 41.47,99.677 27.67,27.655 60.91,41.486 99.7,41.486 7.69,0 14.8,-0.577 21.33,-1.72 3.84,-0.772 6.52,-0.002 8.05,2.303 1.16,1.533 0.77,3.646 -1.14,6.341 -5,6.914 -15.57,10.371 -31.7,10.371 -6.14,0 -14.01,-1.537 -23.62,-4.613 -9.6,-3.076 -17.09,-4.614 -22.47,-4.614 -22.67,0 -38.61,10.379 -47.83,31.129 -3.45,6.914 -5.19,14.21 -5.19,21.895 0,22.665 10.19,38.609 30.55,47.827 20.36,9.599 43.21,14.395 68.56,14.395 43.8,0 78.56,-12.866 104.29,-38.607 52.1308,-63.86806 39.2,-128.27756 39.2,-208.59 0.01,-31.90153 0.6365,-64.67353 1.14,-97.374 0.2484,-16.13009 -5.75,-29.768 -17.28,-40.91 -11.14,-11.523 -24.77,-17.288 -40.91,-17.288 -16.14,0 -29.97,5.765 -41.5,17.288 -11.52,11.133 -17.28,24.769 -17.28,40.91 v 80.094 c 0,6.523 -2.31,12.281 -6.92,17.28 -4.6,4.61 -10.36,6.917 -17.28,6.917 -6.53,0 -12.29,-2.307 -17.28,-6.917 -4.61,-4.999 -6.92,-10.757 -6.92,-17.28 v -80.094 c 0,-16.132 -5.76,-29.768 -17.28,-40.91 -11.53,-11.523 -25.37,-17.288 -41.5,-17.288 z M 917.67152,196.72315 c -16.142,0 -29.978,5.766 -41.501,17.289 -11.523,11.532 -17.42928,25.36669 -17.281,41.508 l 2.399,261.14308 c 0.14827,16.14031 5.758,29.977 17.281,41.5 11.532,11.143 25.369,16.713 41.501,16.713 16.151,0 29.797,-5.57 40.939,-16.713 11.523,-11.523 17.42927,-25.35969 17.281,-41.5 l -2.399,-261.14308 c -0.14837,-16.15031 -5.758,-29.985 -17.281,-41.508 -11.151,-11.523 -24.798,-17.289 -40.939,-17.289 z"
     style="fill:#000000;fill-rule:nonzero"
     id="path2"
     sodipodi:nodetypes="scsscscssccscsccccccscscccsscsscscscscscscscccccscsccscsscsscscccscscscsccccscsscscsscsscsscscsscs" /><path
     d="m 849.834,520.45844 m -158.50881,59.0314 c 39.85935,0 73.96159,-14.1787 102.32673,-42.541 27.98614,-27.9822 41.97446,-61.7103 41.97446,-101.1883 0,-39.8591 -13.98832,-73.9683 -41.97446,-102.3307 -28.36514,-27.9811 -62.46738,-41.9732 -102.32673,-41.9732 -39.47986,0 -73.4026,13.9921 -101.76814,41.9732 -8.81001,8.818 -13.21962,19.5415 -13.21962,32.1787 0,12.6552 4.40961,23.3897 13.21962,32.2065 8.82011,8.808 19.55553,13.2129 32.18664,13.2129 12.66122,0 23.39694,-4.4049 32.20655,-13.2129 10.34661,-10.7365 22.80843,-16.0992 37.37495,-16.0992 14.93592,0 27.77653,5.1712 38.51245,15.5176 10.35641,10.7365 15.53452,23.5812 15.53452,38.5271 0,14.5558 -5.37771,27.0135 -16.11342,37.3698 -5.36751,5.7489 -11.88292,9.5782 -19.53553,11.4968 -1.9353,0.3802 -3.4621,0.1935 -4.60921,-0.5667 -0.7685,-1.1593 -0.3794,-2.3117 1.15731,-3.4611 l 11.49371,-12.0715 c 8.81981,-8.8179 13.22982,-19.3618 13.22982,-31.6189 0,-12.6461 -3.83121,-22.801 -11.49372,-30.4685 -7.66251,-7.6685 -18.39822,-11.4968 -32.20664,-11.4968 -9.57811,0 -19.15662,4.7841 -28.73474,14.3613 l -66.69798,66.1162 c -8.81972,8.8269 -13.22972,19.5634 -13.22972,32.2006 0,12.6551 4.41,23.3847 13.22972,32.1926 26.82893,26.4517 59.98357,39.6755 99.46343,39.6755 z"
     style="fill:#000000;fill-rule:nonzero;stroke-width:3.77091"
     id="path473" /></g>
    </g><g
     id="g386"
     transform="matrix(5.111315,0,0,5.111315,-6.6656923,-430.84942)"><path
       d="m 1.6959152,94.514024 c 0,2.796709 0.981473,5.189977 2.94512,7.180016 1.990248,1.9633 4.383027,2.94505 7.1797358,2.94505 2.770104,0 5.150282,-0.98175 7.140533,-2.94505 0.618144,-0.61871 0.927568,-1.37112 0.927568,-2.257808 0,-0.887947 -0.309424,-1.641133 -0.927568,-2.259769 -0.618846,-0.618006 -1.372104,-0.927079 -2.258371,-0.927079 -0.888365,0 -1.64162,0.309073 -2.259768,0.927079 -0.725955,0.753326 -1.600318,1.129604 -2.622394,1.129604 -2.1941356,-0.224492 -3.7648623,-1.737101 -3.7921828,-3.792043 -1.7908379,-0.331512 -2.507396,-0.06256 -6.332673,0 z"
       style="fill:#000000;fill-rule:nonzero;stroke-width:0.264585"
       id="path274"
       sodipodi:nodetypes="ccscscscccc" /><path
       d="m 1.6953939,94.61397 c 0,-2.796709 0.981473,-5.189977 2.94512,-7.180013 1.990248,-1.9633 4.383027,-2.94505 7.1797371,-2.94505 2.770103,0 5.150281,0.98175 7.140532,2.94505 0.618144,0.61871 0.927568,1.37112 0.927568,2.257805 0,0.887947 -0.309424,1.641133 -0.927568,2.259769 -0.618846,0.618006 -1.372104,0.927079 -2.258371,0.927079 -0.888365,0 -1.64162,-0.309073 -2.259768,-0.927079 -0.725955,-0.753326 -1.600318,-1.129604 -2.622393,-1.129604 -2.1941369,0.224492 -3.7648641,1.737101 -3.7921841,3.792043 -1.790838,0.331512 -2.507396,0.06256 -6.332673,0 z"
       style="clip-rule:evenodd;fill:#000000;fill-rule:nonzero;stroke-width:0.264585;stroke-linejoin:round;stroke-miterlimit:2"
       id="path274-3"
       sodipodi:nodetypes="ccscscscccc" /></g><g
     id="g386-6"
     transform="matrix(3.6953933,0,0,3.6953933,208.33653,-284.24773)"
     style="clip-rule:evenodd;fill-rule:evenodd;stroke-linejoin:round;stroke-miterlimit:2"><path
       d="m 1.6959152,94.514024 c 0,2.796709 0.981473,5.189977 2.94512,7.180016 1.990248,1.9633 4.383027,2.94505 7.1797358,2.94505 2.770104,0 5.150282,-0.98175 7.140533,-2.94505 0.618144,-0.61871 0.927568,-1.37112 0.927568,-2.257808 0,-0.887947 -0.309424,-1.641133 -0.927568,-2.259769 -0.618846,-0.618006 -1.372104,-0.927079 -2.258371,-0.927079 -0.888365,0 -1.64162,0.309073 -2.259768,0.927079 -0.725955,0.753326 -1.600318,1.129604 -2.622394,1.129604 -2.1941356,-0.224492 -3.7648623,-1.737101 -3.7921828,-3.792043 -1.7908379,-0.331512 -2.507396,-0.06256 -6.332673,0 z"
       style="fill:#000000;fill-rule:nonzero;stroke-width:0.264585"
       id="path274-7"
       sodipodi:nodetypes="ccscscscccc" /><path
       d="m 1.6953939,94.61397 c 0,-2.796709 0.981473,-5.189977 2.94512,-7.180013 1.990248,-1.9633 4.383027,-2.94505 7.1797371,-2.94505 2.770103,0 5.150281,0.98175 7.140532,2.94505 0.618144,0.61871 0.927568,1.37112 0.927568,2.257805 0,0.887947 -0.309424,1.641133 -0.927568,2.259769 -0.618846,0.618006 -1.372104,0.927079 -2.258371,0.927079 -0.888365,0 -1.64162,-0.309073 -2.259768,-0.927079 -0.725955,-0.753326 -1.600318,-1.129604 -2.622393,-1.129604 -2.1941369,0.224492 -3.7648641,1.737101 -3.7921841,3.792043 -1.790838,0.331512 -2.507396,0.06256 -6.332673,0 z"
       style="clip-rule:evenodd;fill:#000000;fill-rule:nonzero;stroke-width:0.264585;stroke-linejoin:round;stroke-miterlimit:2"
       id="path274-3-5"
       sodipodi:nodetypes="ccscscscccc" /></g></g>
</svg>

<?xml version="1.0" encoding="UTF-8" standalone="no"?>
<!DOCTYPE svg PUBLIC "-//W3C//DTD SVG 1.1//EN" "http://www.w3.org/Graphics/SVG/1.1/DTD/svg11.dtd">
<svg width="515px" height="136px" version="1.1" xmlns="http://www.w3.org/2000/svg" xmlns:xlink="http://www.w3.org/1999/xlink" xml:space="preserve" xmlns:serif="http://www.serif.com/" style="fill-rule:evenodd;clip-rule:evenodd;stroke-linejoin:round;stroke-miterlimit:2;">
    <g id="path2" transform="matrix(0.264585,0,0,0.264585,-50.0005,-50.0001)">
        <path d="M256.418,188.976C248.558,188.944 240.758,190.308 233.379,193.013C220.308,197.613 209.533,205.888 201.091,217.802C193.02,229.329 188.977,242.195 188.977,256.409L188.977,508.89C188.977,527.332 195.52,543.29 208.576,556.732C222.032,569.803 237.99,576.331 256.418,576.331C275.259,576.331 291.204,569.803 304.274,556.747C317.73,543.291 324.441,527.332 324.441,508.89L324.441,462.983C324.584,453.04 334.824,455.655 340.01,462.983C349.695,479.767 370.251,494.19 394.193,494.105L394.193,494.119C418.119,494.019 438.005,482.196 448.375,462.983C452.304,458.354 463.377,450.455 464.52,462.983L464.52,508.89C464.52,527.332 471.047,543.29 484.104,556.732C497.574,569.803 513.511,576.331 531.953,576.331C550.78,576.331 566.739,569.803 579.809,556.747C593.265,543.291 599.977,527.332 599.977,508.89L599.977,256.409C599.977,242.195 595.752,229.329 587.309,217.802C579.224,205.874 568.653,197.613 555.597,193.013C547.912,190.314 540.228,188.976 532.543,188.976C511.788,188.976 494.301,197.046 480.073,213.188L411.636,293.281C410.107,294.438 405.006,303.247 394.178,303.247C383.379,303.247 378.868,294.439 377.325,293.296L308.297,213.188C294.47,197.046 277.173,188.976 256.418,188.976ZM682.904,188.983C666.763,188.983 652.926,194.748 641.404,206.271C630.261,217.413 624.691,231.054 624.691,247.196C624.691,263.338 630.261,277.174 641.404,288.697C652.926,299.839 666.763,305.41 682.904,305.41C699.046,305.41 712.88,299.839 724.412,288.697C735.935,277.174 741.693,263.338 741.693,247.196C741.693,231.054 735.935,217.413 724.412,206.271C712.88,194.748 699.046,188.983 682.904,188.983ZM1327.58,193.013C1311.45,193.013 1297.62,198.779 1286.1,210.302C1274.96,221.444 1269.38,235.08 1269.38,251.212L1269.38,519.72C1269.38,535.861 1274.96,549.697 1286.1,561.22C1297.62,572.362 1311.45,577.933 1327.58,577.933C1343.73,577.933 1357.55,572.362 1369.08,561.22C1380.6,549.697 1386.37,535.867 1386.37,519.734C1386.37,508.211 1387.9,502.453 1390.96,502.453C1392.51,502.453 1394.05,503.023 1395.58,504.166L1453.2,560.061C1464.72,571.203 1478.36,576.774 1494.11,576.774C1510.62,576.774 1524.45,571.009 1535.6,559.486C1546.74,547.572 1552.31,533.936 1552.31,518.575C1552.31,502.053 1546.36,488.029 1534.45,476.506C1508.32,450.765 1494.69,437.517 1493.54,436.755C1488.54,431.755 1488.73,427.53 1494.11,424.073L1495.27,423.497L1495.27,422.929L1531.57,399.875C1548.85,388.352 1557.5,372.026 1557.5,350.904C1557.5,339.381 1554.42,328.622 1548.28,318.623C1536.76,301.339 1520.43,292.691 1499.3,292.691C1487.78,292.691 1477.02,295.768 1467.04,301.911C1422.48,331.499 1399.42,346.678 1397.88,347.449C1395.2,349.363 1392.7,349.738 1390.4,348.586C1387.7,347.434 1386.35,344.939 1386.35,341.101L1386.35,251.212C1386.35,235.08 1380.59,221.444 1369.07,210.302C1357.55,198.779 1343.72,193.013 1327.58,193.013ZM1716.37,291.738C1676.42,291.738 1642.24,305.949 1613.81,334.376C1585.76,362.422 1571.74,396.227 1571.74,435.795C1571.74,475.745 1585.76,509.932 1613.81,538.359C1642.24,566.404 1676.42,580.428 1716.37,580.428C1755.94,580.428 1789.94,566.404 1818.37,538.359C1827.2,529.521 1831.62,518.773 1831.62,506.107C1831.62,493.423 1827.2,482.664 1818.37,473.827C1809.53,464.999 1798.77,460.584 1786.11,460.584C1773.42,460.584 1762.66,464.999 1753.83,473.827C1743.46,484.588 1730.97,489.963 1716.37,489.963C1701.4,489.963 1688.53,484.78 1677.77,474.41C1667.39,463.649 1662.2,450.775 1662.2,435.795C1662.2,421.206 1667.59,408.72 1678.35,398.34C1683.73,392.578 1690.26,388.74 1697.93,386.817C1699.87,386.436 1701.4,386.623 1702.55,387.385C1703.32,388.547 1702.93,389.702 1701.39,390.854L1689.87,402.953C1681.03,411.791 1676.61,422.359 1676.61,434.644C1676.61,447.319 1680.45,457.497 1688.13,465.182C1695.81,472.868 1706.57,476.705 1720.41,476.705C1730.01,476.705 1739.61,471.91 1749.21,462.311L1816.06,396.044C1824.9,387.197 1829.32,376.436 1829.32,363.77C1829.32,351.086 1824.9,340.332 1816.06,331.504C1789.17,304.992 1755.94,291.738 1716.37,291.738ZM877.977,292.668C841.947,292.194 813.839,301.679 793.662,321.133C775.996,338.036 767.168,359.358 767.168,385.089C767.549,417.363 780.035,441.565 804.624,457.697C811.918,462.687 820.941,466.72 831.693,469.796C837.083,471.72 846.111,474.02 858.777,476.705C869.919,479.391 882.023,481.886 895.088,484.191C897.774,484.962 898.924,486.312 898.543,488.236C898.543,490.541 897.58,491.691 895.657,491.691C890.667,492.072 886.059,492.266 881.831,492.266C850.328,488.81 829.001,485.927 817.859,483.622C814.793,482.851 811.535,482.463 808.078,482.463C796.165,482.463 785.787,486.884 776.949,495.721C768.502,504.178 764.282,514.551 764.282,526.836C764.282,536.825 767.352,545.854 773.494,553.92C780.027,561.986 788.486,567.169 798.866,569.473C831.13,576.778 860.317,580.428 886.429,580.428C922.16,580.428 950.013,570.825 969.992,551.617C987.277,535.094 995.925,513.775 995.925,487.653C995.925,455.388 983.626,431.187 959.037,415.045C945.972,406.598 927.915,400.45 904.869,396.612C891.042,393.927 879.518,391.427 870.3,389.112L870.3,389.127C867.605,388.356 866.067,386.818 865.686,384.513C865.686,382.59 867.224,381.44 870.3,381.059C873.757,380.678 877.415,380.678 881.262,381.059C913.146,384.135 934.652,386.823 945.794,389.127C948.861,389.889 951.931,390.271 955.007,390.271C967.301,390.271 977.674,386.051 986.121,377.604C994.959,368.767 999.379,358.393 999.379,346.49C999.379,336.109 996.109,326.894 989.576,318.837C983.043,310.761 974.79,305.566 964.81,303.261C938.298,297.5 911.788,294.042 885.285,292.89C882.813,292.77 880.379,292.7 877.977,292.668ZM1128.73,292.668C1092.7,292.194 1064.59,301.679 1044.42,321.133C1026.75,338.036 1017.92,359.358 1017.92,385.089C1018.3,417.363 1030.79,441.565 1055.38,457.697C1062.67,462.687 1071.7,466.72 1082.46,469.796C1087.84,471.72 1096.86,474.02 1109.54,476.705C1120.68,479.391 1132.79,481.886 1145.84,484.191C1148.53,484.962 1149.68,486.312 1149.3,488.236C1149.3,490.541 1148.34,491.691 1146.41,491.691C1141.42,492.072 1136.81,492.266 1132.59,492.266C1101.09,488.81 1079.77,485.927 1068.63,483.622C1065.55,482.851 1062.29,482.463 1058.83,482.463C1046.92,482.463 1036.55,486.884 1027.72,495.721C1019.26,504.178 1015.04,514.551 1015.04,526.836C1015.04,536.825 1018.11,545.854 1024.26,553.92C1030.79,561.986 1039.24,567.169 1049.62,569.473C1081.88,576.778 1111.08,580.428 1137.2,580.428C1172.92,580.428 1200.77,570.825 1220.75,551.617C1238.03,535.094 1246.68,513.775 1246.68,487.653C1246.68,455.388 1234.39,431.187 1209.81,415.045C1196.74,406.598 1178.68,400.45 1155.64,396.612C1141.81,393.927 1130.29,391.427 1121.07,389.112L1121.05,389.127C1118.37,388.356 1116.84,386.818 1116.45,384.513C1116.45,382.59 1117.99,381.44 1121.05,381.059C1124.52,380.678 1128.17,380.678 1132.01,381.059C1163.89,384.135 1185.41,386.823 1196.55,389.127C1199.62,389.889 1202.69,390.271 1205.76,390.271C1218.06,390.271 1228.43,386.051 1236.89,377.604C1245.72,368.767 1250.13,358.393 1250.13,346.49C1250.13,336.109 1246.87,326.894 1240.35,318.837C1233.81,310.761 1225.55,305.566 1215.56,303.261C1189.06,297.5 1162.55,294.042 1136.04,292.89C1133.57,292.77 1131.13,292.7 1128.73,292.668ZM1910.17,296.736C1894.04,296.736 1880.21,302.501 1868.69,314.024C1857.55,325.157 1851.98,338.793 1851.98,354.934L1851.98,435.028C1851.98,473.825 1865.8,507.05 1893.45,534.705C1921.12,562.36 1954.36,576.191 1993.15,576.191C2000.84,576.191 2007.95,575.614 2014.48,574.471C2018.32,573.699 2021,574.469 2022.53,576.774C2023.69,578.307 2023.3,580.42 2021.39,583.115C2016.39,590.029 2005.82,593.486 1989.69,593.486C1983.55,593.486 1975.68,591.949 1966.07,588.873C1956.47,585.797 1948.98,584.259 1943.6,584.259C1920.93,584.259 1904.99,594.638 1895.77,615.388C1892.32,622.302 1890.58,629.598 1890.58,637.283C1890.58,659.948 1900.77,675.892 1921.13,685.11C1941.49,694.709 1964.34,699.505 1989.69,699.505C2033.49,699.505 2068.25,686.639 2093.98,660.898C2120.11,635.166 2133.18,600.784 2133.18,557.758L2133.18,452.308C2133.94,446.157 2134.32,440.399 2134.32,435.028L2134.32,354.934C2134.32,338.802 2128.57,325.166 2117.04,314.024C2105.9,302.501 2092.27,296.736 2076.13,296.736C2059.99,296.736 2046.16,302.501 2034.63,314.024C2023.11,325.157 2017.35,338.793 2017.35,354.934L2017.35,435.028C2017.35,441.551 2015.04,447.309 2010.43,452.308C2005.83,456.918 2000.07,459.225 1993.15,459.225C1986.62,459.225 1980.86,456.918 1975.87,452.308C1971.26,447.309 1968.95,441.551 1968.95,435.028L1968.95,354.934C1968.95,338.802 1963.19,325.166 1951.67,314.024C1940.14,302.501 1926.3,296.736 1910.17,296.736ZM683.473,316.947C667.331,316.947 653.495,322.713 641.972,334.236C630.449,345.768 624.691,359.602 624.691,375.744L624.691,518.118C624.691,534.259 630.449,548.095 641.972,559.618C653.504,570.761 667.341,576.331 683.473,576.331C699.624,576.331 713.27,570.761 724.412,559.618C735.935,548.095 741.693,534.259 741.693,518.118L741.693,375.744C741.693,359.593 735.935,345.759 724.412,334.236C713.261,322.713 699.614,316.947 683.473,316.947Z" style="fill:white;fill-rule:nonzero;"/>
    </g>
</svg>
